X: 8
M: C
L: 1/8
K: G
v[g2B2D2G,2]z2 v[g2B2D2G,2]z2 | v[g2B2D2G,2]z2 v[g2B2D2G,2]z2 \
!Segno!\
|] !mf!D2 |\
k[d2F2]k[d2F2] k[d2F2]k[d2F2] | ddcA ddcA | G2GG FDEF | G4 z2 |]
|: "f"D2 | G2B2 d3d  | ddcA ddcA | GG zG FDEF | G4 z2 :|
uD2 | "dance"GFGA BGAB | cBAB cdef | gfge dBGB | AGFE DcBA |
             GFGA BGAB | cBAB cdef | gfge dgfe | dcBA G2 !Segno!|]\
      "break"!ff!g2 (3ggg gbag | fdef [g2B2] H|]


